assets/svg/shop.svg

<?xml version="1.0" encoding="UTF-8"?>
<svg width="1000px" height="1000px" viewBox="0 0 1000 1000" version="1.1" xmlns="http://www.w3.org/2000/svg" xmlns:xlink="http://www.w3.org/1999/xlink">
    <!-- Generator: sketchtool 52.4 (67378) - http://www.bohemiancoding.com/sketch -->
    <title>shop</title>
    <desc>Created with sketchtool.</desc>
    <g id="新版图标" stroke="none" stroke-width="1" fill="none" fill-rule="evenodd">
        <g id="shop" fill="#323233">
            <g id="直角--店铺设置-面">
                <path d="M861.111111,588.814079 L861.111111,916.666667 C861.111111,932.00791 848.674576,944.444444 833.333333,944.444444 L166.666667,944.444444 C151.325424,944.444444 138.888889,932.00791 138.888889,916.666667 L138.888889,588.814079 C89.072108,559.996627 55.5555556,506.134641 55.5555556,444.444444 L150.793651,166.666667 L849.206349,166.666667 L944.444444,444.444444 C944.444444,506.134641 910.927892,559.996627 861.111111,588.814079 Z M805.555556,608.80671 C796.521987,610.322256 787.242006,611.111111 777.777778,611.111111 C719.806368,611.111111 668.747821,581.51363 638.888889,536.60542 C609.029957,581.51363 557.97141,611.111111 500,611.111111 C442.02859,611.111111 390.970043,581.51363 361.111111,536.60542 C331.252179,581.51363 280.193632,611.111111 222.222222,611.111111 C212.757994,611.111111 203.478013,610.322256 194.444444,608.80671 L194.444444,888.888889 L805.555556,888.888889 L805.555556,608.80671 Z M166.666667,55.5555556 L833.333333,55.5555556 L833.333333,111.111111 L166.666667,111.111111 L166.666667,55.5555556 Z" id="Combined-Shape"></path>
            </g>
        </g>
    </g>
</svg>

<svg width="1000" height="1000" xmlns="http://www.w3.org/2000/svg"><path d="M861.111 588.814v327.853c0 15.34-12.436 27.777-27.778 27.777H166.667c-15.342 0-27.778-12.436-27.778-27.777V588.814c-49.817-28.817-83.333-82.68-83.333-144.37l95.238-277.777h698.412l95.238 277.777c0 61.69-33.516 115.553-83.333 144.37zm-55.555 19.993a167.794 167.794 0 0 1-27.778 2.304c-57.972 0-109.03-29.597-138.89-74.506-29.858 44.909-80.917 74.506-138.888 74.506-57.971 0-109.03-29.597-138.889-74.506-29.859 44.909-80.917 74.506-138.889 74.506-9.464 0-18.744-.789-27.778-2.304v280.082h611.112V608.807zM166.666 55.556h666.667v55.555H166.667V55.556z" fill="#323233" fill-rule="evenodd"/></svg>
